static/assets/head_icons_png/man/bizi/1033828.svg

<svg xmlns="http://www.w3.org/2000/svg" width="9" height="11"><g transform="translate(4.6 4.7)"><path d="M-.55 4.7l-.55.05-.45-.25.3-.2.55.3.15.1m1.95.05H.85l.15-.2q.35-.3.5-.25l.25.25-.35.2" fill="#823709"/><radialGradient id="a" gradientUnits="userSpaceOnUse" gradientTransform="matrix(.00786 0 0 .00786 -.5 -3.6)" spreadMethod="pad" cx="0" cy="0" r="819.2" fx="0" fy="0"><stop offset="0" stop-color="#e6805c" stop-opacity=".561"/><stop offset=".894" stop-color="#f0aa86" stop-opacity="0"/></radialGradient><path d="M2.75-3.8q1-1.1 1.5 1-1.15.75-1.8 1.7-.55.8-1.1 2.35-.3-2.95.05-3.4L2.75-3.8" fill="url(#a)"/><radialGradient id="b" gradientUnits="userSpaceOnUse" gradientTransform="matrix(.0106 0 0 .0106 .4 4.8)" spreadMethod="pad" cx="0" cy="0" r="819.2" fx="0" fy="0"><stop offset="0" stop-color="#e6835c" stop-opacity=".722"/><stop offset=".227" stop-color="#ed9e76" stop-opacity=".553"/><stop offset=".694" stop-color="#f0aa86" stop-opacity=".392"/><stop offset=".894" stop-color="#f0aa86" stop-opacity="0"/></radialGradient><path d="M-2.3-3.45l1.2.7q.5.5.55 1.35l.05.2-.05.1-.15 2.55q.1.7-.1 1.35v.1l.2.7q.2.35.9.4h.2l1.25-.15q.5 0 .65.5.15.45-.2.7l-.95.25-.5.05-.6.2h-.2l-.3-.2-1.1-.2q-.9-.05-.65-1.65l.2-.6.35-1.3.15-1.95-.05-.75-.05-.2-.4-1.3-.4-.85M-.7 4.6l-.55-.3-.3.2.45.25.55-.05-.15-.1m2.45-.05L1.5 4.3q-.15-.05-.5.25l-.15.2h.55l.35-.2" fill="url(#b)"/><radialGradient id="c" gradientUnits="userSpaceOnUse" gradientTransform="matrix(.00069 .00006 -.0001 .00282 .05 .45)" spreadMethod="pad" cx="0" cy="0" r="819.2" fx="0" fy="0"><stop offset=".314" stop-color="#fff" stop-opacity=".431"/><stop offset="1" stop-color="#fff" stop-opacity="0"/></radialGradient><path d="M.4-1.1L.45.5.3 2.1l-.1.35v.05l-.2.25-.2-.3-.05-.05-.05-.35-.1-1.6.2-1.65.3-.65.3.75" fill="url(#c)"/><radialGradient id="d" gradientUnits="userSpaceOnUse" gradientTransform="matrix(.00069 .00005 -.00006 .00073 .1 3.35)" spreadMethod="pad" cx="0" cy="0" r="819.2" fx="0" fy="0"><stop offset=".314" stop-color="#fff" stop-opacity=".431"/><stop offset="1" stop-color="#fff" stop-opacity="0"/></radialGradient><path d="M-.3 2.95q.15-.15.4-.15l.4.15.1.45-.15.45-.4.1q-.25 0-.4-.2l-.15-.4.2-.4" fill="url(#d)"/><radialGradient id="e" gradientUnits="userSpaceOnUse" gradientTransform="matrix(.00655 0 0 .00655 -1.4 -2.75)" spreadMethod="pad" cx="0" cy="0" r="819.2" fx="210479" fy="0"><stop offset="0" stop-color="#e68760" stop-opacity=".8"/><stop offset=".988" stop-color="#ffefea" stop-opacity="0"/></radialGradient><path d="M-.4.15L-1.9 2.2V-.35q0-1-.25-1.8-.5-1.5-2.45-2.55h1.4q2.3.6 2.6 1.5.3.9.2 3.35" fill="url(#e)"/></g></svg>

<?xml version="1.0" encoding="utf-8"?>
<svg version="1.1" id="Layer_1"
xmlns="http://www.w3.org/2000/svg"
xmlns:xlink="http://www.w3.org/1999/xlink"
xmlns:author="http://www.sothink.com"
width="9px" height="11px"
xml:space="preserve">
<g id="484" transform="matrix(1, 0, 0, 1, 4.6, 4.7)">
<path style="fill:#823709;fill-opacity:1" d="M-0.55,4.7L-1.1 4.75L-1.55 4.5L-1.25 4.3L-0.7 4.6L-0.55 4.7M1.4,4.75L0.85 4.75L1 4.55Q1.35 4.25 1.5 4.3L1.75 4.55L1.4 4.75" />
<radialGradient
id="RadialGradID_4148" gradientUnits="userSpaceOnUse" gradientTransform="matrix(0.00785828, 0, 0, 0.00785828, -0.5, -3.6)" spreadMethod ="pad" cx="0" cy="0" r="819.2" fx="0" fy="0" >
<stop  offset="0"  style="stop-color:#E6805C;stop-opacity:0.560784" />
<stop  offset="0.894118"  style="stop-color:#F0AA86;stop-opacity:0" />
</radialGradient>
<path style="fill:url(#RadialGradID_4148) " d="M2.75,-3.8Q3.75 -4.9 4.25 -2.8Q3.1 -2.05 2.45 -1.1Q1.9 -0.3 1.35 1.25Q1.05 -1.7 1.4 -2.15L2.75 -3.8" />
<radialGradient
id="RadialGradID_4149" gradientUnits="userSpaceOnUse" gradientTransform="matrix(0.0106049, 0, 0, 0.0106049, 0.4, 4.8)" spreadMethod ="pad" cx="0" cy="0" r="819.2" fx="0" fy="0" >
<stop  offset="0"  style="stop-color:#E6835C;stop-opacity:0.721569" />
<stop  offset="0.227451"  style="stop-color:#ED9E76;stop-opacity:0.552941" />
<stop  offset="0.694118"  style="stop-color:#F0AA86;stop-opacity:0.392157" />
<stop  offset="0.894118"  style="stop-color:#F0AA86;stop-opacity:0" />
</radialGradient>
<path style="fill:url(#RadialGradID_4149) " d="M-2.3,-3.45L-1.1 -2.75Q-0.6 -2.25 -0.55 -1.4L-0.5 -1.2L-0.55 -1.1L-0.7 1.45Q-0.6 2.15 -0.8 2.8L-0.8 2.9L-0.6 3.6Q-0.4 3.95 0.3 4L0.5 4L1.75 3.85Q2.25 3.85 2.4 4.35Q2.55 4.8 2.2 5.05L1.25 5.3L0.75 5.35L0.15 5.55L-0.05 5.55L-0.35 5.35L-1.45 5.15Q-2.35 5.1 -2.1 3.5L-1.9 2.9L-1.55 1.6L-1.4 -0.35L-1.45 -1.1L-1.5 -1.3L-1.9 -2.6L-2.3 -3.45M-0.7,4.6L-1.25 4.3L-1.55 4.5L-1.1 4.75L-0.55 4.7L-0.7 4.6M1.75,4.55L1.5 4.3Q1.35 4.25 1 4.55L0.85 4.75L1.4 4.75L1.75 4.55" />
<radialGradient
id="RadialGradID_4150" gradientUnits="userSpaceOnUse" gradientTransform="matrix(0.000686646, 6.10352e-005, -9.15527e-005, 0.00282288, 0.05, 0.45)" spreadMethod ="pad" cx="0" cy="0" r="819.2" fx="0" fy="0" >
<stop  offset="0.313725"  style="stop-color:#FFFFFF;stop-opacity:0.431373" />
<stop  offset="1"  style="stop-color:#FFFFFF;stop-opacity:0" />
</radialGradient>
<path style="fill:url(#RadialGradID_4150) " d="M0.4,-1.1L0.45 0.5L0.3 2.1L0.2 2.45L0.2 2.5L0 2.75L-0.2 2.45L-0.25 2.4L-0.3 2.05L-0.4 0.45L-0.2 -1.2L0.1 -1.85L0.4 -1.1" />
<radialGradient
id="RadialGradID_4151" gradientUnits="userSpaceOnUse" gradientTransform="matrix(0.000686646, 4.57764e-005, -6.10352e-005, 0.000732422, 0.1, 3.35)" spreadMethod ="pad" cx="0" cy="0" r="819.2" fx="0" fy="0" >
<stop  offset="0.313725"  style="stop-color:#FFFFFF;stop-opacity:0.431373" />
<stop  offset="1"  style="stop-color:#FFFFFF;stop-opacity:0" />
</radialGradient>
<path style="fill:url(#RadialGradID_4151) " d="M-0.3,2.95Q-0.15 2.8 0.1 2.8L0.5 2.95L0.6 3.4L0.45 3.85L0.05 3.95Q-0.2 3.95 -0.35 3.75L-0.5 3.35L-0.3 2.95" />
<radialGradient
id="RadialGradID_4152" gradientUnits="userSpaceOnUse" gradientTransform="matrix(0.00654602, 0, 0, 0.00654602, -1.4, -2.75)" spreadMethod ="pad" cx="0" cy="0" r="819.2" fx="210479" fy="0" >
<stop  offset="0"  style="stop-color:#E68760;stop-opacity:0.8" />
<stop  offset="0.988235"  style="stop-color:#FFEFEA;stop-opacity:0" />
</radialGradient>
<path style="fill:url(#RadialGradID_4152) " d="M-0.4,0.15L-1.9 2.2L-1.9 -0.35Q-1.9 -1.35 -2.15 -2.15Q-2.65 -3.65 -4.6 -4.7L-3.2 -4.7Q-0.9 -4.1 -0.6 -3.2Q-0.3 -2.3 -0.4 0.15" />
</g>
</svg>
